Papirus-Dark/16x16/actions/node-join-segment.svg

<?xml version="1.0" encoding="UTF-8" standalone="no"?>
<svg xmlns:osb="http://www.openswatchbook.org/uri/2009/osb" xmlns:dc="http://purl.org/dc/elements/1.1/" xmlns:cc="http://creativecommons.org/ns#" xmlns:rdf="http://www.w3.org/1999/02/22-rdf-syntax-ns#" xmlns:svg="http://www.w3.org/2000/svg" xmlns="http://www.w3.org/2000/svg" width="16" height="16" viewBox="0 0 16 16" id="svg6394" version="1.1">
    <defs id="defs6396">
        <linearGradient id="linearGradient19282" osb:paint="solid" gradientTransform="matrix(-0.40801424,2.7359005,1.4465395,0.18903615,2588.4859,828.26016)">
            <stop style="stop-color:#ffffff;stop-opacity:1;" offset="0" id="stop19284"/>
        </linearGradient>
        <linearGradient id="linearGradient19282-3" osb:paint="solid" gradientTransform="matrix(-2.7359006,0.40801425,-0.18903616,-1.4465395,-804.26018,-2564.486)">
            <stop style="stop-color:#ffffff;stop-opacity:1;" offset="0" id="stop19284-6"/>
        </linearGradient>
        <linearGradient gradientTransform="matrix(-2.73658,0.4081035,-0.1890831,-1.446856,-1254.4599,-3933.7766)" osb:paint="solid" id="linearGradient19282-36">
            <stop id="stop19284-7" offset="0" style="stop-color:#666666;stop-opacity:1;"/>
        </linearGradient>
    </defs>
    <metadata id="metadata6399">
        <rdf:RDF>
            <cc:Work rdf:about="">
                <dc:format>
                    image/svg+xml
                </dc:format>
                <dc:type rdf:resource="http://purl.org/dc/dcmitype/StillImage"/>
                <dc:title/>
            </cc:Work>
        </rdf:RDF>
    </metadata>
    <path id="rect5247" d="M 1 0 L 1 2.0019531 L 0.50390625 2.0019531 C -0.16145805 2.0019531 -0.16145805 3 0.50390625 3 L 1 3 L 1 5 L 5 5 L 5 3 L 5 2 L 5 0 L 1 0 z M 10 0 L 10 2 L 10 3 L 10 5 L 14 5 L 14 3 L 14.507812 3 C 15.183974 3.00956 15.183974 1.9904374 14.507812 2 L 14 2 L 14 0 L 10 0 z " style="opacity:0.72000002;fill:#ffffff;fill-opacity:1;fill-rule:nonzero;stroke:none"/>
    <path id="path4376" d="m 7,5.02675 1,0 -4e-6,2 2.000004,0 -2.500004,3 -2.499996,-3 1.999996,0 4e-6,-2 z" style="fill:#ffffff;fill-rule:evenodd;fill-opacity:1;opacity:0.72"/>
    <path style="opacity:0.72000002;fill:#ffffff;fill-opacity:1;fill-rule:nonzero;stroke:none" d="m 1,11 0,2.001953 -0.49609375,0 c -0.6653643,0 -0.6653643,0.998047 0,0.998047 L 1,14 l 0,2 4,0 0,-2 5,0 0,2 4,0 0,-2 0.507812,0 c 0.676161,0.0096 0.676161,-1.009563 0,-1 L 14,13 l 0,-2 -4,0 0,2 -5,0 0,-2 z" id="path5284"/>
</svg>

<?xml version="1.0" encoding="UTF-8" standalone="no"?>
<svg id="svg6394" xmlns:rdf="http://www.w3.org/1999/02/22-rdf-syntax-ns#" xmlns="http://www.w3.org/2000/svg" xmlns:osb="http://www.openswatchbook.org/uri/2009/osb" height="16" width="16" version="1.1" xmlns:cc="http://creativecommons.org/ns#" viewBox="0 0 16 16" xmlns:dc="http://purl.org/dc/elements/1.1/">
 <metadata id="metadata6399">
  <rdf:RDF>
   <cc:Work rdf:about="">
    <dc:format>image/svg+xml</dc:format>
    <dc:type rdf:resource="http://purl.org/dc/dcmitype/StillImage"/>
    <dc:title/>
   </cc:Work>
  </rdf:RDF>
 </metadata>
 <path id="rect5247" opacity="1" fill="#d3dae3" d="m1 0v2.002h-0.49609c-0.66537 0-0.66537 0.998 0 0.998h0.49609v2h4v-2-1-2h-4zm9 0v2 1 2h4v-2h0.508c0.676 0.0096 0.676-1.0096 0-1h-0.508v-2h-4z"/>
 <path id="path4376" opacity="1" fill="#d3dae3" d="m7 5.0268h1l-0.000004 2h2l-2.5 3-2.5-3h2l0.000004-2z" fill-rule="evenodd"/>
 <path id="path5284" opacity="1" fill="#d3dae3" d="m1 11v2.002h-0.49609c-0.66536 0-0.66536 0.99805 0 0.99805h0.49609v2h4v-2h5v2h4v-2h0.50781c0.67616 0.0096 0.67616-1.0096 0-1h-0.508v-2h-4v2h-5v-2z"/>
</svg>
